src/maasserver/static/assets/images/icons/account.svg

<?xml version="1.0" encoding="UTF-8" standalone="no"?>
<!-- Created with Inkscape (http://www.inkscape.org/) -->

<svg
   xmlns:dc="http://purl.org/dc/elements/1.1/"
   xmlns:cc="http://creativecommons.org/ns#"
   xmlns:rdf="http://www.w3.org/1999/02/22-rdf-syntax-ns#"
   xmlns:svg="http://www.w3.org/2000/svg"
   xmlns="http://www.w3.org/2000/svg"
   xmlns:sodipodi="http://sodipodi.sourceforge.net/DTD/sodipodi-0.dtd"
   xmlns:inkscape="http://www.inkscape.org/namespaces/inkscape"
   width="96"
   height="96"
   id="svg4874"
   version="1.1"
   inkscape:version="0.91+devel r"
   viewBox="0 0 96 96.000001"
   sodipodi:docname="account.svg">
  <defs
     id="defs4876" />
  <sodipodi:namedview
     id="base"
     pagecolor="#ffffff"
     bordercolor="#666666"
     borderopacity="1.0"
     inkscape:pageopacity="0.0"
     inkscape:pageshadow="2"
     inkscape:zoom="4.4959994"
     inkscape:cx="-45.195744"
     inkscape:cy="27.012875"
     inkscape:document-units="px"
     inkscape:current-layer="g4780"
     showgrid="true"
     showborder="true"
     fit-margin-top="0"
     fit-margin-left="0"
     fit-margin-right="0"
     fit-margin-bottom="0"
     inkscape:snap-bbox="true"
     inkscape:bbox-paths="true"
     inkscape:bbox-nodes="true"
     inkscape:snap-bbox-edge-midpoints="true"
     inkscape:snap-bbox-midpoints="true"
     inkscape:object-paths="true"
     inkscape:snap-intersection-paths="true"
     inkscape:object-nodes="true"
     inkscape:snap-smooth-nodes="true"
     inkscape:snap-midpoints="true"
     inkscape:snap-object-midpoints="true"
     inkscape:snap-center="true"
     showguides="true"
     inkscape:guide-bbox="true">
    <inkscape:grid
       type="xygrid"
       id="grid5451"
       empspacing="8" />
    <sodipodi:guide
       orientation="1,0"
       position="8,-8.0000001"
       id="guide4063" />
    <sodipodi:guide
       orientation="1,0"
       position="4,-8.0000001"
       id="guide4065" />
    <sodipodi:guide
       orientation="0,1"
       position="-8,88.000001"
       id="guide4067" />
    <sodipodi:guide
       orientation="0,1"
       position="-8,92.000001"
       id="guide4069" />
    <sodipodi:guide
       orientation="0,1"
       position="104,4"
       id="guide4071" />
    <sodipodi:guide
       orientation="0,1"
       position="-5,8.0000001"
       id="guide4073" />
    <sodipodi:guide
       orientation="1,0"
       position="92,-8.0000001"
       id="guide4075" />
    <sodipodi:guide
       orientation="1,0"
       position="88,-8.0000001"
       id="guide4077" />
    <sodipodi:guide
       orientation="0,1"
       position="-8,84.000001"
       id="guide4074" />
    <sodipodi:guide
       orientation="1,0"
       position="12,-8.0000001"
       id="guide4076" />
    <sodipodi:guide
       orientation="0,1"
       position="-5,12"
       id="guide4078" />
    <sodipodi:guide
       orientation="1,0"
       position="84,-9.0000001"
       id="guide4080" />
    <sodipodi:guide
       position="48,-8.0000001"
       orientation="1,0"
       id="guide4170" />
    <sodipodi:guide
       position="-8,48"
       orientation="0,1"
       id="guide4172" />
  </sodipodi:namedview>
  <metadata
     id="metadata4879">
    <rdf:RDF>
      <cc:Work
         rdf:about="">
        <dc:format>image/svg+xml</dc:format>
        <dc:type
           rdf:resource="http://purl.org/dc/dcmitype/StillImage" />
        <dc:title></dc:title>
      </cc:Work>
    </rdf:RDF>
  </metadata>
  <g
     inkscape:label="Layer 1"
     inkscape:groupmode="layer"
     id="layer1"
     transform="translate(67.857146,-78.50504)">
    <g
       transform="matrix(0,-1,-1,0,373.50506,516.50504)"
       id="g4845"
       style="display:inline">
      <g
         inkscape:export-ydpi="90"
         inkscape:export-xdpi="90"
         inkscape:export-filename="next01.png"
         transform="matrix(-0.9996045,0,0,1,575.94296,-611.00001)"
         id="g4778"
         inkscape:label="Layer 1">
        <g
           transform="matrix(-1,0,0,1,575.99999,611)"
           id="g4780"
           style="display:inline">
          <rect
             style="color:#000000;display:inline;overflow:visible;visibility:visible;fill:none;stroke:none;stroke-width:4;marker:none;enable-background:accumulate"
             id="rect4782"
             width="96.037987"
             height="96"
             x="-438.00244"
             y="345.36221"
             transform="scale(-1,1)" />
          <path
             style="color:#000000;font-style:normal;font-variant:normal;font-weight:normal;font-stretch:normal;font-size:medium;line-height:normal;font-family:sans-serif;font-variant-ligatures:none;font-variant-position:normal;font-variant-caps:normal;font-variant-numeric:normal;font-variant-alternates:normal;font-feature-settings:normal;text-indent:0;text-align:start;text-decoration:none;text-decoration-line:none;text-decoration-style:solid;text-decoration-color:#000000;letter-spacing:normal;word-spacing:normal;text-transform:none;direction:ltr;block-progression:tb;writing-mode:lr-tb;baseline-shift:baseline;text-anchor:start;white-space:normal;shape-padding:0;clip-rule:nonzero;display:inline;overflow:visible;visibility:visible;opacity:1;isolation:auto;mix-blend-mode:normal;color-interpolation:sRGB;color-interpolation-filters:linearRGB;solid-color:#000000;solid-opacity:1;fill:#808080;fill-opacity:1;fill-rule:nonzero;stroke:none;stroke-width:3.99999976;stroke-linecap:round;stroke-linejoin:round;stroke-miterlimit:4;stroke-dasharray:none;stroke-dashoffset:0;stroke-opacity:1;marker:none;color-rendering:auto;image-rendering:auto;shape-rendering:auto;text-rendering:auto;enable-background:accumulate"
             d="M 48 6 C 24.82764 6 6 24.828928 6 48 C 6 71.171082 24.82764 89.998047 48 89.998047 C 71.17236 89.998047 90 71.171082 90 48 C 90 24.828928 71.17236 6 48 6 z M 48 10 C 69.00932 10 85.998047 26.989403 85.998047 48 C 85.998047 57.324357 82.648284 65.851966 77.089844 72.458984 C 75.880399 69.673828 74.236761 67.15858 72.150391 64.964844 C 70.195161 62.90257 67.842233 61.175943 65.132812 59.773438 C 63.988713 60.779809 62.745307 61.673028 61.435547 62.455078 C 64.623787 63.819518 67.211024 65.571799 69.246094 67.71875 L 69.248047 67.720703 C 71.409661 69.993565 72.998691 72.621656 74.058594 75.660156 C 67.25845 82.068727 58.096807 86 48 86 C 37.865395 86 28.674972 82.039109 21.867188 75.587891 C 22.989919 72.575434 24.572755 69.964739 26.646484 67.712891 C 28.854784 65.385362 31.702026 63.514105 35.273438 62.107422 C 38.780366 60.7261 43.004713 60.001131 47.96875 59.998047 C 47.979327 59.998061 47.989419 60 48 60 C 50.88645 60 53.612664 59.492346 56.121094 58.458984 L 56.136719 58.451172 L 56.154297 58.441406 C 58.643607 57.361963 60.814206 55.824859 62.603516 53.865234 C 64.444386 51.90392 65.862453 49.563353 66.845703 46.898438 C 67.839643 44.204633 68.322266 41.226383 68.322266 38 L 68.322266 37.998047 C 68.322266 34.817245 67.838143 31.865537 66.845703 29.175781 C 65.865123 26.469732 64.449412 24.102715 62.607422 22.138672 C 60.814712 20.174289 58.633466 18.656792 56.134766 17.625 C 53.624206 16.539509 50.89156 16 48 16 C 45.10848 16 42.375774 16.539509 39.865234 17.625 C 37.366424 18.656772 35.164892 20.167924 33.326172 22.125 L 33.316406 22.136719 L 33.304688 22.148438 C 31.512838 24.115219 30.129071 26.479584 29.150391 29.183594 L 29.148438 29.1875 C 28.158817 31.874207 27.677734 34.821724 27.677734 37.998047 C 27.677734 41.22443 28.158384 44.204633 29.152344 46.898438 C 30.132624 49.555276 31.518107 51.890568 33.304688 53.851562 L 33.316406 53.863281 L 33.326172 53.873047 C 34.554402 55.180354 35.946613 56.295627 37.476562 57.216797 C 36.203111 57.542023 34.976694 57.926624 33.808594 58.386719 C 29.779014 59.973861 26.393928 62.163006 23.736328 64.966797 L 23.726562 64.978516 L 23.716797 64.990234 C 21.709351 67.16698 20.094685 69.651154 18.861328 72.400391 C 13.332773 65.801675 10.001958 57.296418 10.001953 48 C 10.001953 26.989403 26.99069 10 48 10 z M 48 19.998047 C 50.40753 19.998047 52.57292 20.436059 54.5625 21.298828 L 54.580078 21.306641 L 54.595703 21.314453 C 56.591283 22.136548 58.256599 23.297094 59.662109 24.839844 L 59.671875 24.851562 L 59.681641 24.863281 C 61.135141 26.410299 62.268621 28.281981 63.087891 30.546875 L 63.089844 30.554688 L 63.09375 30.560547 C 63.90341 32.754919 64.320312 35.222209 64.320312 38 C 64.320312 40.82987 63.90191 43.323378 63.09375 45.513672 C 62.27613 47.729685 61.141471 49.582973 59.681641 51.136719 L 59.671875 51.148438 L 59.662109 51.160156 C 58.253889 52.705905 56.579012 53.89482 54.576172 54.765625 C 52.584432 55.583162 50.41227 56 48 56 C 45.58707 56 43.414065 55.583621 41.421875 54.765625 C 39.419395 53.89481 37.715406 52.69911 36.253906 51.146484 C 34.842036 49.593449 33.7259 47.735133 32.90625 45.513672 C 32.09808 43.323378 31.679688 40.82987 31.679688 38 C 31.679688 35.222209 32.09658 32.754919 32.90625 30.560547 L 32.908203 30.554688 L 32.912109 30.546875 C 33.733279 28.276793 34.848186 26.399894 36.253906 24.853516 C 37.713036 23.303549 39.408717 22.136538 41.404297 21.314453 L 41.419922 21.306641 L 41.4375 21.298828 C 43.42706 20.436059 45.59251 19.998047 48 19.998047 z "
             transform="matrix(0,-1,-1.0003957,0,438.00245,441.36222)"
             id="path4116" />
        </g>
      </g>
    </g>
  </g>
</svg>

<svg xmlns="http://www.w3.org/2000/svg" width="96" height="96" viewBox="0 0 96 96.000001"><g color="#000"><path overflow="visible" fill="none" d="M96 0v96H0V0z"/><path style="line-height:normal;font-variant-ligatures:none;font-variant-position:normal;font-variant-caps:normal;font-variant-numeric:normal;font-variant-alternates:normal;font-feature-settings:normal;text-indent:0;text-align:start;text-decoration-line:none;text-decoration-style:solid;text-decoration-color:#000;text-transform:none;block-progression:tb;shape-padding:0;isolation:auto;mix-blend-mode:normal" d="M48 6C24.828 6 6 24.83 6 48s18.828 41.998 42 41.998S90 71.17 90 48C90 24.83 71.172 6 48 6zm0 4c21.01 0 37.998 16.99 37.998 38 0 9.324-3.35 17.852-8.908 24.46a25.598 25.598 0 0 0-4.94-7.495c-1.955-2.062-4.308-3.79-7.017-5.192a24.975 24.975 0 0 1-3.697 2.682c3.188 1.365 5.775 3.117 7.81 5.264h.002c2.162 2.274 3.75 4.902 4.81 7.94C67.26 82.07 58.1 86 48 86c-10.135 0-19.325-3.96-26.133-10.412 1.123-3.013 2.706-5.623 4.78-7.875 2.208-2.328 5.055-4.2 8.626-5.606 3.507-1.38 7.732-2.106 12.696-2.11L48 60c2.886 0 5.613-.508 8.12-1.54l.017-.01.017-.01c2.49-1.078 4.66-2.615 6.45-4.575 1.84-1.96 3.258-4.302 4.242-6.967.994-2.693 1.476-5.672 1.476-8.898v-.002c0-3.18-.484-6.132-1.476-8.822-.98-2.706-2.397-5.073-4.24-7.037-1.79-1.966-3.973-3.483-6.47-4.515C53.623 16.54 50.89 16 48 16c-2.892 0-5.624.54-8.135 1.625a18.703 18.703 0 0 0-6.54 4.5l-.01.012-.01.01c-1.792 1.968-3.176 4.333-4.155 7.037l-.002.004c-.99 2.686-1.47 5.634-1.47 8.81 0 3.226.48 6.207 1.474 8.9.98 2.657 2.366 4.993 4.153 6.954l.01.01.01.01a19.447 19.447 0 0 0 4.152 3.345c-1.274.325-2.5.71-3.668 1.17-4.03 1.587-7.416 3.776-10.074 6.58l-.01.012-.01.01c-2.007 2.177-3.62 4.66-4.855 7.41a37.86 37.86 0 0 1-8.858-24.4c0-21.01 16.99-38 37.998-38zm0 9.998c2.408 0 4.573.438 6.562 1.3l.018.01.016.006c1.995.823 3.66 1.983 5.066 3.526l.01.012.01.01c1.453 1.548 2.587 3.42 3.406 5.685l.002.008.004.006c.81 2.195 1.226 4.662 1.226 7.44 0 2.83-.418 5.323-1.226 7.514-.818 2.216-1.953 4.07-3.412 5.623l-.01.01-.01.013c-1.408 1.546-3.083 2.735-5.086 3.606C52.584 55.583 50.412 56 48 56c-2.413 0-4.586-.416-6.578-1.234a15.41 15.41 0 0 1-5.168-3.62c-1.412-1.553-2.528-3.41-3.348-5.632-.808-2.19-1.226-4.684-1.226-7.514 0-2.778.417-5.245 1.226-7.44l.002-.005.004-.008c.82-2.27 1.936-4.147 3.342-5.693a14.599 14.599 0 0 1 5.15-3.54l.016-.007.017-.008c1.99-.864 4.156-1.302 6.563-1.302z" font-family="sans-serif" white-space="normal" overflow="visible" solid-color="#000000" fill="gray"/></g></svg>
